resources/haticons/SVG/calendar_today.svg

<!-- Generated by IcoMoon.io -->
<svg version="1.1" xmlns="http://www.w3.org/2000/svg" width="24" height="24" viewBox="0 0 24 24">
<title>calendar_today</title>
<path d="M20.016 21v-12.984h-16.031v12.984h16.031zM20.016 3q0.797 0 1.383 0.609t0.586 1.406v15.984q0 0.797-0.586 1.406t-1.383 0.609h-16.031q-0.797 0-1.383-0.609t-0.586-1.406v-15.984q0-0.797 0.586-1.406t1.383-0.609h1.031v-2.016h1.969v2.016h10.031v-2.016h1.969v2.016h1.031z"></path>
</svg>

<svg xmlns="http://www.w3.org/2000/svg" width="24" height="24"><path d="M20.016 21V8.016H3.985V21h16.031zm0-18q.797 0 1.383.609t.586 1.406v15.984q0 .797-.586 1.406t-1.383.609H3.985q-.797 0-1.383-.609t-.586-1.406V5.015q0-.797.586-1.406T3.985 3h1.031V.984h1.969V3h10.031V.984h1.969V3h1.031z"/></svg>
